src/components/Icon/utils/svgsOptimized/calendar.svg

<?xml version="1.0" encoding="utf-8"?><svg width="24" height="24" xmlns="http://www.w3.org/2000/svg" viewBox="0 0 24 24"><path d="M20.25 3H3.75c-.41 0-.75.34-.75.75v16.5c0 .41.34.75.75.75h16.5c.41 0 .75-.34.75-.75V3.75c0-.41-.34-.75-.75-.75ZM10 14.84v-3.17h4v3.17h-4Zm4 1.5v3.16h-4v-3.16h4ZM14 7v3.17h-4V7h4Zm1.5 0h4v3.17h-4V7Zm-7 0v3.17h-4V7h4Zm-4 4.67h4v3.17h-4v-3.17Zm11 0h4v3.17h-4v-3.17Zm-11 4.67h4v3.16h-4v-3.16Zm11 3.16v-3.16h4v3.16h-4Z"/></svg>

<svg width="24" height="24" viewBox="0 0 24 24"  xmlns="http://www.w3.org/2000/svg">
<path d="M20.25 3H3.75C3.34 3 3 3.34 3 3.75V20.25C3 20.66 3.34 21 3.75 21H20.25C20.66 21 21 20.66 21 20.25V3.75C21 3.34 20.66 3 20.25 3ZM10 14.84V11.67H14V14.84H10ZM14 16.34V19.5H10V16.34H14ZM14 7V10.17H10V7H14ZM15.5 7H19.5V10.17H15.5V7ZM8.5 7V10.17H4.5V7H8.5ZM4.5 11.67H8.5V14.84H4.5V11.67ZM15.5 11.67H19.5V14.84H15.5V11.67ZM4.5 16.34H8.5V19.5H4.5V16.34ZM15.5 19.5V16.34H19.5V19.5H15.5Z" />
</svg>
